dist/media/images/thunder.svg

<svg width="23" height="36" viewBox="0 0 23 36" fill="none" xmlns="http://www.w3.org/2000/svg">
<g filter="url(#filter0_d_1_1011)">
<path d="M21.3579 11.7959C21.3035 11.6967 21.223 11.6141 21.1252 11.5572C21.0274 11.5004 20.9159 11.4713 20.8028 11.4731L11.5188 11.6772L16.0398 0.854466C16.0799 0.760974 16.0958 0.658846 16.0858 0.557587C16.0759 0.456328 16.0404 0.359231 15.9829 0.275353C15.9273 0.190237 15.8513 0.120437 15.7618 0.0723368C15.6723 0.0242367 15.5721 -0.000626649 15.4705 3.6389e-05H3.5156C3.36777 -0.00157565 3.22435 0.0504209 3.11185 0.146405C2.99936 0.242388 2.92537 0.375872 2.90361 0.52219L0.00501691 19.2152C-0.00592884 19.2999 0.0010815 19.3859 0.0256041 19.4677C0.0501266 19.5495 0.0916048 19.6252 0.147332 19.6899C0.205415 19.759 0.278076 19.8145 0.360094 19.8522C0.442113 19.89 0.531458 19.9091 0.621734 19.9082H9.09455L6.4474 32.25C6.42659 32.3402 6.4265 32.4341 6.44717 32.5244C6.46784 32.6147 6.5087 32.6991 6.5667 32.7713C6.6247 32.8435 6.69835 32.9016 6.78204 32.9412C6.86573 32.9808 6.9573 33.0009 7.04987 33C7.15089 33.0003 7.25046 32.9758 7.3398 32.9286C7.42914 32.8815 7.50551 32.813 7.56224 32.7294L21.3199 12.413C21.3804 12.3227 21.4158 12.218 21.4224 12.1096C21.4291 12.0011 21.4068 11.8929 21.3579 11.7959Z" fill="white"/>
<path d="M11.0092 12.0248L11.2085 11.5476L15.7295 0.72486L15.7308 0.721848C15.7486 0.680455 15.7556 0.63526 15.7512 0.590483C15.7468 0.545691 15.7311 0.502724 15.7056 0.465607L15.7012 0.459203L15.7013 0.459154C15.6765 0.421156 15.6426 0.389998 15.6026 0.368527C15.5627 0.347061 15.518 0.335978 15.4727 0.336274L15.4705 0.336288L3.5156 0.336281H3.51194L3.51194 0.336261C3.44539 0.335535 3.3808 0.358939 3.3301 0.402196C3.27938 0.445468 3.24601 0.505667 3.23619 0.571666L3.23589 0.573714L3.23588 0.573713L0.338071 19.2617C0.333787 19.2984 0.337057 19.3357 0.347684 19.3711C0.35864 19.4077 0.377169 19.4415 0.402056 19.4704L0.404832 19.4736L0.404811 19.4736C0.43099 19.5048 0.463733 19.5298 0.50068 19.5468C0.537648 19.5638 0.577879 19.5724 0.618494 19.572L0.621734 19.572L9.09455 19.572H9.51056L9.42331 19.9787L6.77617 32.3205L6.77509 32.3256L6.77505 32.3255C6.76565 32.3663 6.76562 32.4086 6.77494 32.4493C6.78427 32.4901 6.80271 32.5282 6.82884 32.5607C6.85496 32.5932 6.88815 32.6194 6.92589 32.6373C6.96359 32.6551 7.00481 32.6642 7.04648 32.6637L7.05099 32.6637C7.09689 32.6639 7.14217 32.6527 7.18279 32.6313C7.22331 32.6099 7.258 32.5789 7.28382 32.5409L11.0092 12.0248ZM11.0092 12.0248L11.5262 12.0134L20.8083 11.8093C20.8086 11.8093 20.8088 11.8093 20.8091 11.8093C20.8607 11.8086 20.9115 11.8219 20.9562 11.8479C20.9994 11.8731 21.0353 11.9092 21.0602 11.9525C21.0805 11.9949 21.0897 12.0419 21.0868 12.0889C21.0838 12.1376 21.068 12.1847 21.041 12.2252C21.0408 12.2254 21.0407 12.2256 21.0406 12.2258L7.28396 32.5407L11.0092 12.0248Z" stroke="#19154A" stroke-width="0.672489"/>
</g>
<defs>
<filter id="filter0_d_1_1011" x="0" y="0" width="22.4801" height="35.1616" filterUnits="userSpaceOnUse" color-interpolation-filters="sRGB">
<feFlood flood-opacity="0" result="BackgroundImageFix"/>
<feColorMatrix in="SourceAlpha" type="matrix" values="0 0 0 0 0 0 0 0 0 0 0 0 0 0 0 0 0 0 127 0" result="hardAlpha"/>
<feOffset dx="1.05677" dy="2.16157"/>
<feComposite in2="hardAlpha" operator="out"/>
<feColorMatrix type="matrix" values="0 0 0 0 0.0980392 0 0 0 0 0.0823529 0 0 0 0 0.290196 0 0 0 1 0"/>
<feBlend mode="normal" in2="BackgroundImageFix" result="effect1_dropShadow_1_1011"/>
<feBlend mode="normal" in="SourceGraphic" in2="effect1_dropShadow_1_1011" result="shape"/>
</filter>
</defs>
</svg>

<svg width="23" height="36" fill="none" xmlns="http://www.w3.org/2000/svg"><g filter="url(#filter0_d_1_1011)"><path d="M21.358 11.796a.623.623 0 00-.555-.323l-9.284.204L16.039.854a.603.603 0 00-.056-.579A.608.608 0 0015.47 0H3.516a.612.612 0 00-.612.522L.005 19.215a.608.608 0 00.142.475.612.612 0 00.475.218h8.473L6.447 32.25a.613.613 0 00.603.75.617.617 0 00.512-.27L21.32 12.412a.612.612 0 00.038-.617z" fill="#fff"/><path d="M11.01 12.025l.199-.477L15.729.725l.002-.003a.267.267 0 00-.025-.256L15.7.459h0a.27.27 0 00-.228-.123H3.512h0a.276.276 0 00-.276.236v.002h0L.338 19.262a.271.271 0 00.064.208l.003.004h0a.275.275 0 00.213.098h8.893l-.088.407L6.776 32.32v.005h0a.276.276 0 00.27.338h.005a.28.28 0 00.233-.123l3.725-20.516zm0 0l.516-.012 9.282-.204h.001a.285.285 0 01.251.144.277.277 0 01-.019.272s0 0 0 0L7.284 32.542l3.725-20.516z" stroke="#19154A" stroke-width=".672"/></g><defs><filter id="filter0_d_1_1011" x="0" y="0" width="22.48" height="35.162" filterUnits="userSpaceOnUse" color-interpolation-filters="sRGB"><feFlood flood-opacity="0" result="BackgroundImageFix"/><feColorMatrix in="SourceAlpha" values="0 0 0 0 0 0 0 0 0 0 0 0 0 0 0 0 0 0 127 0" result="hardAlpha"/><feOffset dx="1.057" dy="2.162"/><feComposite in2="hardAlpha" operator="out"/><feColorMatrix values="0 0 0 0 0.0980392 0 0 0 0 0.0823529 0 0 0 0 0.290196 0 0 0 1 0"/><feBlend in2="BackgroundImageFix" result="effect1_dropShadow_1_1011"/><feBlend in="SourceGraphic" in2="effect1_dropShadow_1_1011" result="shape"/></filter></defs></svg>
